svg/fluentui-system-icons/ic_fluent_home_28_regular.svg

<svg width="28" height="28" viewBox="0 0 28 28" fill="none" xmlns="http://www.w3.org/2000/svg">
<path d="M12.5919 3.49507C13.4146 2.83498 14.5854 2.83498 15.4081 3.49507L23.1581 9.7134C23.6903 10.1404 24 10.786 24 11.4683V22.7487C24 23.9914 22.9926 24.9987 21.75 24.9987H18.75C17.5074 24.9987 16.5 23.9914 16.5 22.7487V16.7487C16.5 16.3345 16.1642 15.9987 15.75 15.9987H12.25C11.8358 15.9987 11.5 16.3345 11.5 16.7487V22.7487C11.5 23.9914 10.4926 24.9987 9.25 24.9987H6.25C5.00736 24.9987 4 23.9914 4 22.7487V11.4683C4 10.786 4.30967 10.1404 4.84191 9.7134L12.5919 3.49507ZM14.4694 4.66502C14.1951 4.44499 13.8049 4.44499 13.5306 4.66502L5.78064 10.8834C5.60322 11.0257 5.5 11.2409 5.5 11.4683V22.7487C5.5 23.1629 5.83579 23.4987 6.25 23.4987H9.25C9.66421 23.4987 10 23.1629 10 22.7487V16.7487C10 15.5061 11.0074 14.4987 12.25 14.4987H15.75C16.9926 14.4987 18 15.5061 18 16.7487V22.7487C18 23.1629 18.3358 23.4987 18.75 23.4987H21.75C22.1642 23.4987 22.5 23.1629 22.5 22.7487V11.4683C22.5 11.2409 22.3968 11.0257 22.2194 10.8834L14.4694 4.66502Z" fill="#212121"/>
</svg>

<svg xmlns="http://www.w3.org/2000/svg" width="28" height="28"><path d="M12.592 3.495a2.25 2.25 0 0 1 2.816 0l7.75 6.218A2.25 2.25 0 0 1 24 11.468v11.28a2.25 2.25 0 0 1-2.25 2.25h-3a2.25 2.25 0 0 1-2.25-2.25v-6a.75.75 0 0 0-.75-.75h-3.5a.75.75 0 0 0-.75.75v6a2.25 2.25 0 0 1-2.25 2.25h-3A2.25 2.25 0 0 1 4 22.749v-11.28c0-.682.31-1.328.842-1.755l7.75-6.218Zm1.877 1.17a.75.75 0 0 0-.938 0l-7.75 6.218a.75.75 0 0 0-.281.585v11.28c0 .415.336.75.75.75h3a.75.75 0 0 0 .75-.75v-6a2.25 2.25 0 0 1 2.25-2.25h3.5a2.25 2.25 0 0 1 2.25 2.25v6c0 .415.336.75.75.75h3a.75.75 0 0 0 .75-.75v-11.28a.75.75 0 0 0-.28-.585l-7.75-6.218Z"/></svg>
